ACEScg-v2.0_ocio-v2.4.ocio
ocio_profile_version: 2.4

environment:
  {}
search_path: ""
strictparsing: true
luma: [0.2126, 0.7152, 0.0722]
name: cg-config-v3.0.0_aces-v2.0_ocio-v2.4
description: |
  Academy Color Encoding System - CG Config [COLORSPACES v3.0.0] [ACES v2.0] [OCIO v2.4]
  --------------------------------------------------------------------------------------

  This minimalistic "OpenColorIO" config is geared toward computer graphics artists requiring a lean config that does not include camera colorspaces and the less common displays and looks.

roles:
  aces_interchange: ACES2065-1
  cie_xyz_d65_interchange: CIE XYZ-D65 - Display-referred
  color_picking: sRGB Encoded Rec.709 (sRGB)
  color_timing: ACEScct
  compositing_log: ACEScct
  data: Raw
  default: ACES2065-1
  matte_paint: ACEScct
  reference: ACEScg
  scene_linear: ACEScg
  texture_paint: sRGB Encoded Rec.709 (sRGB)

file_rules:
  - !<Rule> {name: srgb_tx, colorspace: sRGB Encoded Rec.709 (sRGB), pattern: "*srgb_tx*", extension: "*"}
  - !<Rule> {name: srgb_texture, colorspace: sRGB Encoded Rec.709 (sRGB), pattern: "*srgb_texture*", extension: "*"}
  - !<Rule> {name: acescg, colorspace: ACEScg, pattern: "*ACEScg*", extension: "*"}
  - !<Rule> {name: lin_rec709, colorspace: Linear Rec.709 (sRGB), pattern: "*lin_rec709*", extension: "*"}
  - !<Rule> {name: lin_srgb, colorspace: Linear Rec.709 (sRGB), pattern: "*lin_srgb*", extension: "*"}
  - !<Rule> {name: __usdz_jpg, colorspace: sRGB Encoded Rec.709 (sRGB), regex: ".[uu][ss][dd][zz]\\[.*[jj][pp][gg]\\]"}
  - !<Rule> {name: __usdz_jpeg, colorspace: sRGB Encoded Rec.709 (sRGB), regex: ".[uu][ss][dd][zz]\\[.*[jj][pp][ee][gg]\\]"}
  - !<Rule> {name: __usdz_png, colorspace: sRGB Encoded Rec.709 (sRGB), regex: ".[uu][ss][dd][zz]\\[.*[pp][nn][gg]\\]"}
  - !<Rule> {name: __usdz_tif, colorspace: sRGB Encoded Rec.709 (sRGB), regex: ".[uu][ss][dd][zz]\\[.*[tt][ii][ff]\\]"}
  - !<Rule> {name: __usdz_tiff, colorspace: sRGB Encoded Rec.709 (sRGB), regex: ".[uu][ss][dd][zz]\\[.*[tt][ii][ff][ff]\\]"}
  - !<Rule> {name: __usdz_exr, colorspace: ACEScg, regex: ".[uu][ss][dd][zz]\\[.*[ee][xx][rr]\\]"}
  - !<Rule> {name: jpg,  colorspace: sRGB Encoded Rec.709 (sRGB), pattern: "*", extension: jpg}
  - !<Rule> {name: jpeg, colorspace: sRGB Encoded Rec.709 (sRGB), pattern: "*", extension: jpeg}
  - !<Rule> {name: png,  colorspace: sRGB Encoded Rec.709 (sRGB), pattern: "*", extension: png}
  - !<Rule> {name: tif,  colorspace: sRGB Encoded Rec.709 (sRGB), pattern: "*", extension: tif}
  - !<Rule> {name: tiff, colorspace: sRGB Encoded Rec.709 (sRGB), pattern: "*", extension: tiff}
  - !<Rule> {name: exr,  colorspace: ACEScg, pattern: "*", extension: exr}
  - !<Rule> {name: Default, colorspace: ACES2065-1}

shared_views:
  - !<View> {name: ACES 2.0 - SDR 100 nits (Rec.709), view_transform: ACES 2.0 - SDR 100 nits (Rec.709), display_colorspace: <USE_DISPLAY_NAME>}
  - !<View> {name: ACES 2.0 - SDR 100 nits (P3 D65), view_transform: ACES 2.0 - SDR 100 nits (P3 D65), display_colorspace: <USE_DISPLAY_NAME>}
  - !<View> {name: ACES 2.0 - HDR 1000 nits (P3 D65), view_transform: ACES 2.0 - HDR 1000 nits (P3 D65), display_colorspace: <USE_DISPLAY_NAME>}
  - !<View> {name: ACES 2.0 - HDR 1000 nits (Rec.2020), view_transform: ACES 2.0 - HDR 1000 nits (Rec.2020), display_colorspace: <USE_DISPLAY_NAME>}
  - !<View> {name: Un-tone-mapped, view_transform: Un-tone-mapped, display_colorspace: <USE_DISPLAY_NAME>}

displays:
  sRGB - Display:
    - !<View> {name: Raw, colorspace: Raw}
    - !<Views> [ACES 2.0 - SDR 100 nits (Rec.709), Un-tone-mapped]
  Display P3 - Display:
    - !<View> {name: Raw, colorspace: Raw}
    - !<Views> [ACES 2.0 - SDR 100 nits (P3 D65), Un-tone-mapped]
  Display P3 HDR - Display:
    - !<View> {name: Raw, colorspace: Raw}
    - !<Views> [ACES 2.0 - HDR 1000 nits (P3 D65), ACES 2.0 - SDR 100 nits (Rec.709), Un-tone-mapped]
  P3-D65 - Display:
    - !<View> {name: Raw, colorspace: Raw}
    - !<Views> [ACES 2.0 - SDR 100 nits (P3 D65), ACES 2.0 - SDR 100 nits (Rec.709), Un-tone-mapped]
  Rec.1886 Rec.709 - Display:
    - !<View> {name: Raw, colorspace: Raw}
    - !<Views> [ACES 2.0 - SDR 100 nits (Rec.709), Un-tone-mapped]
  Rec.2100-PQ - Display:
    - !<View> {name: Raw, colorspace: Raw}
    - !<Views> [ACES 2.0 - HDR 1000 nits (P3 D65), ACES 2.0 - HDR 1000 nits (Rec.2020), ACES 2.0 - SDR 100 nits (Rec.709), Un-tone-mapped]
  ST2084-P3-D65 - Display:
    - !<View> {name: Raw, colorspace: Raw}
    - !<Views> [ACES 2.0 - HDR 1000 nits (P3 D65), ACES 2.0 - SDR 100 nits (Rec.709), Un-tone-mapped]

active_displays: [sRGB - Display, Display P3 - Display, Display P3 HDR - Display, P3-D65 - Display, Rec.1886 Rec.709 - Display, Rec.2100-PQ - Display, ST2084-P3-D65 - Display]
active_views: [ACES 2.0 - HDR 1000 nits (P3 D65), ACES 2.0 - HDR 1000 nits (Rec.2020), ACES 2.0 - SDR 100 nits (P3 D65), ACES 2.0 - SDR 100 nits (Rec.709), Un-tone-mapped, Raw]
inactive_colorspaces: [CIE XYZ-D65 - Display-referred, CIE XYZ-D65 - Scene-referred]

looks:
  - !<Look>
    name: ACES 1.3 Reference Gamut Compression
    process_space: ACES2065-1
    description: |
      LMT (applied in ACES2065-1) to compress scene-referred values from common cameras into the AP1 gamut

      ACEStransformID: urn:ampas:aces:transformId:v2.0:Look.Academy.ReferenceGamutCompress.a2.v1

      AMF Components
      --------------
      ACEStransformID: urn:ampas:aces:transformId:v2.0:InvLook.Academy.ReferenceGamutCompress.a2.v1
    transform: !<BuiltinTransform> {style: ACES-LMT - ACES 1.3 Reference Gamut Compression}


default_view_transform: Un-tone-mapped

view_transforms:
  - !<ViewTransform>
    name: Un-tone-mapped
    from_scene_reference: !<BuiltinTransform> {style: UTILITY - ACES-AP0_to_CIE-XYZ-D65_BFD}

  - !<ViewTransform>
    name: ACES 2.0 - SDR 100 nits (Rec.709)
    description: |
      Component of ACES 2 Output Transforms for 100 nit SDR Rec709

      ACEStransformID: urn:ampas:aces:transformId:v2.0:Output.Academy.Rec709-D65_100nit_in_Rec709-D65_BT1886.a2.v1

      AMF Components
      --------------
      ACEStransformID: urn:ampas:aces:transformId:v2.0:InvOutput.Academy.Rec709-D65_100nit_in_Rec709-D65_BT1886.a2.v1
    from_scene_reference: !<BuiltinTransform> {style: ACES-OUTPUT - ACES2065-1_to_CIE-XYZ-D65 - SDR-100nit-REC709_2.0}

  - !<ViewTransform>
    name: ACES 2.0 - SDR 100 nits (P3 D65)
    description: |
      Component of ACES 2 Output Transforms for 100 nit SDR P3-D65

      ACEStransformID: urn:ampas:aces:transformId:v2.0:Output.Academy.P3-D65_48nit_in_P3-D65_Gamma2pt6.a2.v1

      AMF Components
      --------------
      ACEStransformID: urn:ampas:aces:transformId:v2.0:InvOutput.Academy.P3-D65_48nit_in_P3-D65_Gamma2pt6.a2.v1
    from_scene_reference: !<BuiltinTransform> {style: ACES-OUTPUT - ACES2065-1_to_CIE-XYZ-D65 - SDR-100nit-P3-D65_2.0}

  - !<ViewTransform>
    name: ACES 2.0 - HDR 1000 nits (P3 D65)
    description: |
      Component of ACES 2 Output Transforms for 1000 nit HDR P3-D65

      ACEStransformID: urn:ampas:aces:transformId:v2.0:Output.Academy.P3-D65_1000nit_in_P3-D65_ST2084.a2.v1

      AMF Components
      --------------
      ACEStransformID: urn:ampas:aces:transformId:v2.0:InvOutput.Academy.P3-D65_1000nit_in_P3-D65_ST2084.a2.v1
    from_scene_reference: !<BuiltinTransform> {style: ACES-OUTPUT - ACES2065-1_to_CIE-XYZ-D65 - HDR-1000nit-P3-D65_2.0}

  - !<ViewTransform>
    name: ACES 2.0 - HDR 1000 nits (Rec.2020)
    description: |
      Component of ACES 2 Output Transforms for 1000 nit HDR Rec2020

      ACEStransformID: urn:ampas:aces:transformId:v2.0:Output.Academy.Rec2100-D65_1000nit_in_Rec2100-D65_ST2084.a2.v1

      AMF Components
      --------------
      ACEStransformID: urn:ampas:aces:transformId:v2.0:InvOutput.Academy.Rec2100-D65_1000nit_in_Rec2100-D65_ST2084.a2.v1
    from_scene_reference: !<BuiltinTransform> {style: ACES-OUTPUT - ACES2065-1_to_CIE-XYZ-D65 - HDR-1000nit-REC2020_2.0}

display_colorspaces:
  - !<ColorSpace>
    name: CIE XYZ-D65 - Display-referred
    aliases: [cie_xyz_d65_display, lin_ciexyzd65_display]
    family: ""
    equalitygroup: ""
    bitdepth: 32f
    description: The "CIE XYZ (D65)" display connection colorspace.
    isdata: false
    encoding: display-linear
    allocation: uniform

  - !<ColorSpace>
    name: sRGB - Display
    aliases: [srgb_display]
    family: Display
    equalitygroup: ""
    bitdepth: 32f
    description: |
      Convert CIE XYZ (D65 white) to sRGB (piecewise EOTF)

      AMF Components
      --------------
      ACEStransformID: urn:ampas:aces:transformId:v2.0:Output.Academy.Rec709-D65_100nit_in_Rec709-D65_sRGB-Piecewise.a2.v1
      ACEStransformID: urn:ampas:aces:transformId:v2.0:InvOutput.Academy.Rec709-D65_100nit_in_Rec709-D65_sRGB-Piecewise.a2.v1
      ACEStransformID: urn:ampas:aces:transformId:v2.0:Output.Academy.Rec709-D60_100nit_in_Rec709-D65_sRGB-Piecewise.a2.v1
      ACEStransformID: urn:ampas:aces:transformId:v2.0:InvOutput.Academy.Rec709-D60_100nit_in_Rec709-D65_sRGB-Piecewise.a2.v1
    isdata: false
    categories: [file-io]
    encoding: sdr-video
    allocation: uniform
    from_display_reference: !<BuiltinTransform> {style: DISPLAY - CIE-XYZ-D65_to_sRGB}

  - !<ColorSpace>
    name: Display P3 - Display
    aliases: [displayp3_display]
    family: Display
    equalitygroup: ""
    bitdepth: 32f
    description: |
      Convert CIE XYZ (D65 white) to Apple Display P3

      AMF Components
      --------------
      ACEStransformID: urn:ampas:aces:transformId:v2.0:Output.Academy.P3-D65_100nit_in_P3-D65_sRGB-Piecewise.a2.v1
      ACEStransformID: urn:ampas:aces:transformId:v2.0:InvOutput.Academy.P3-D65_100nit_in_P3-D65_sRGB-Piecewise.a2.v1
      ACEStransformID: urn:ampas:aces:transformId:v2.0:Output.Academy.P3-D60_100nit_in_P3-D65_sRGB-Piecewise.a2.v1
      ACEStransformID: urn:ampas:aces:transformId:v2.0:InvOutput.Academy.P3-D60_100nit_in_P3-D65_sRGB-Piecewise.a2.v1
    isdata: false
    categories: [file-io]
    encoding: sdr-video
    allocation: uniform
    from_display_reference: !<BuiltinTransform> {style: DISPLAY - CIE-XYZ-D65_to_DisplayP3}

  - !<ColorSpace>
    name: Display P3 HDR - Display
    aliases: [displayp3_hdr_display]
    family: Display
    equalitygroup: ""
    bitdepth: 32f
    description: |
      Convert CIE XYZ (D65 white) to Apple Display P3 (HDR)

      AMF Components
      --------------
      ACEStransformID: urn:ampas:aces:transformId:v2.0:Output.Academy.P3-D65_1000nit_in_P3-D65_sRGB-Piecewise.a2.v1
      ACEStransformID: urn:ampas:aces:transformId:v2.0:InvOutput.Academy.P3-D65_1000nit_in_P3-D65_sRGB-Piecewise.a2.v1
      ACEStransformID: urn:ampas:aces:transformId:v2.0:Output.Academy.P3-D60_1000nit_in_P3-D65_sRGB-Piecewise.a2.v1
      ACEStransformID: urn:ampas:aces:transformId:v2.0:InvOutput.Academy.P3-D60_1000nit_in_P3-D65_sRGB-Piecewise.a2.v1
      ACEStransformID: urn:ampas:aces:transformId:v2.0:Output.Academy.Rec709-D65_100nit_in_P3-D65_sRGB-Piecewise.a2.v1
      ACEStransformID: urn:ampas:aces:transformId:v2.0:InvOutput.Academy.Rec709-D65_100nit_in_P3-D65_sRGB-Piecewise.a2.v1
      ACEStransformID: urn:ampas:aces:transformId:v2.0:Output.Academy.Rec709-D60_100nit_in_P3-D65_sRGB-Piecewise.a2.v1
      ACEStransformID: urn:ampas:aces:transformId:v2.0:InvOutput.Academy.Rec709-D60_100nit_in_P3-D65_sRGB-Piecewise.a2.v1
    isdata: false
    categories: [file-io]
    encoding: hdr-video
    allocation: uniform
    from_display_reference: !<BuiltinTransform> {style: DISPLAY - CIE-XYZ-D65_to_DisplayP3-HDR}

  - !<ColorSpace>
    name: P3-D65 - Display
    aliases: [p3d65_display]
    family: Display
    equalitygroup: ""
    bitdepth: 32f
    description: |
      Convert CIE XYZ (D65 white) to Gamma 2.6, P3-D65

      AMF Components
      --------------
      ACEStransformID: urn:ampas:aces:transformId:v2.0:Output.Academy.P3-D65_48nit_in_P3-D65_Gamma2pt6.a2.v1
      ACEStransformID: urn:ampas:aces:transformId:v2.0:InvOutput.Academy.P3-D65_48nit_in_P3-D65_Gamma2pt6.a2.v1
      ACEStransformID: urn:ampas:aces:transformId:v2.0:Output.Academy.P3-D60_48nit_in_P3-D65_Gamma2pt6.a2.v1
      ACEStransformID: urn:ampas:aces:transformId:v2.0:InvOutput.Academy.P3-D60_48nit_in_P3-D65_Gamma2pt6.a2.v1
      ACEStransformID: urn:ampas:aces:transformId:v2.0:Output.Academy.Rec709-D65_48nit_in_P3-D65_Gamma2pt6.a2.v1
      ACEStransformID: urn:ampas:aces:transformId:v2.0:InvOutput.Academy.Rec709-D65_48nit_in_P3-D65_Gamma2pt6.a2.v1
      ACEStransformID: urn:ampas:aces:transformId:v2.0:Output.Academy.Rec709-D60_48nit_in_P3-D65_Gamma2pt6.a2.v1
      ACEStransformID: urn:ampas:aces:transformId:v2.0:InvOutput.Academy.Rec709-D60_48nit_in_P3-D65_Gamma2pt6.a2.v1
    isdata: false
    categories: [file-io]
    encoding: sdr-video
    allocation: uniform
    from_display_reference: !<BuiltinTransform> {style: DISPLAY - CIE-XYZ-D65_to_G2.6-P3-D65}

  - !<ColorSpace>
    name: Rec.1886 Rec.709 - Display
    aliases: [rec1886_rec709_display]
    family: Display
    equalitygroup: ""
    bitdepth: 32f
    description: |
      Convert CIE XYZ (D65 white) to Rec.1886/Rec.709 (HD video)

      AMF Components
      --------------
      ACEStransformID: urn:ampas:aces:transformId:v2.0:Output.Academy.Rec709-D65_100nit_in_Rec709-D65_BT1886.a2.v1
      ACEStransformID: urn:ampas:aces:transformId:v2.0:InvOutput.Academy.Rec709-D65_100nit_in_Rec709-D65_BT1886.a2.v1
      ACEStransformID: urn:ampas:aces:transformId:v2.0:Output.Academy.Rec709-D60_100nit_in_Rec709-D65_BT1886.a2.v1
      ACEStransformID: urn:ampas:aces:transformId:v2.0:InvOutput.Academy.Rec709-D60_100nit_in_Rec709-D65_BT1886.a2.v1
    isdata: false
    categories: [file-io]
    encoding: sdr-video
    allocation: uniform
    from_display_reference: !<BuiltinTransform> {style: DISPLAY - CIE-XYZ-D65_to_REC.1886-REC.709}

  - !<ColorSpace>
    name: Rec.2100-PQ - Display
    aliases: [rec2100_pq_display]
    family: Display
    equalitygroup: ""
    bitdepth: 32f
    description: |
      Convert CIE XYZ (D65 white) to Rec.2100-PQ

      AMF Components
      --------------
      ACEStransformID: urn:ampas:aces:transformId:v2.0:Output.Academy.P3-D65_500nit_in_Rec2100-D65_ST2084.a2.v1
      ACEStransformID: urn:ampas:aces:transformId:v2.0:InvOutput.Academy.P3-D65_500nit_in_Rec2100-D65_ST2084.a2.v1
      ACEStransformID: urn:ampas:aces:transformId:v2.0:Output.Academy.P3-D65_1000nit_in_Rec2100-D65_ST2084.a2.v1
      ACEStransformID: urn:ampas:aces:transformId:v2.0:InvOutput.Academy.P3-D65_1000nit_in_Rec2100-D65_ST2084.a2.v1
      ACEStransformID: urn:ampas:aces:transformId:v2.0:Output.Academy.P3-D65_2000nit_in_Rec2100-D65_ST2084.a2.v1
      ACEStransformID: urn:ampas:aces:transformId:v2.0:InvOutput.Academy.P3-D65_2000nit_in_Rec2100-D65_ST2084.a2.v1
      ACEStransformID: urn:ampas:aces:transformId:v2.0:Output.Academy.P3-D65_4000nit_in_Rec2100-D65_ST2084.a2.v1
      ACEStransformID: urn:ampas:aces:transformId:v2.0:InvOutput.Academy.P3-D65_4000nit_in_Rec2100-D65_ST2084.a2.v1
      ACEStransformID: urn:ampas:aces:transformId:v2.0:Output.Academy.P3-D60_500nit_in_Rec2100-D65_ST2084.a2.v1
      ACEStransformID: urn:ampas:aces:transformId:v2.0:InvOutput.Academy.P3-D60_500nit_in_Rec2100-D65_ST2084.a2.v1
      ACEStransformID: urn:ampas:aces:transformId:v2.0:Output.Academy.P3-D60_1000nit_in_Rec2100-D65_ST2084.a2.v1
      ACEStransformID: urn:ampas:aces:transformId:v2.0:InvOutput.Academy.P3-D60_1000nit_in_Rec2100-D65_ST2084.a2.v1
      ACEStransformID: urn:ampas:aces:transformId:v2.0:Output.Academy.P3-D60_2000nit_in_Rec2100-D65_ST2084.a2.v1
      ACEStransformID: urn:ampas:aces:transformId:v2.0:InvOutput.Academy.P3-D60_2000nit_in_Rec2100-D65_ST2084.a2.v1
      ACEStransformID: urn:ampas:aces:transformId:v2.0:Output.Academy.P3-D60_4000nit_in_Rec2100-D65_ST2084.a2.v1
      ACEStransformID: urn:ampas:aces:transformId:v2.0:InvOutput.Academy.P3-D60_4000nit_in_Rec2100-D65_ST2084.a2.v1
      ACEStransformID: urn:ampas:aces:transformId:v2.0:Output.Academy.Rec2100-D65_500nit_in_Rec2100-D65_ST2084.a2.v1
      ACEStransformID: urn:ampas:aces:transformId:v2.0:InvOutput.Academy.Rec2100-D65_500nit_in_Rec2100-D65_ST2084.a2.v1
      ACEStransformID: urn:ampas:aces:transformId:v2.0:Output.Academy.Rec2100-D65_1000nit_in_Rec2100-D65_ST2084.a2.v1
      ACEStransformID: urn:ampas:aces:transformId:v2.0:InvOutput.Academy.Rec2100-D65_1000nit_in_Rec2100-D65_ST2084.a2.v1
      ACEStransformID: urn:ampas:aces:transformId:v2.0:Output.Academy.Rec2100-D65_2000nit_in_Rec2100-D65_ST2084.a2.v1
      ACEStransformID: urn:ampas:aces:transformId:v2.0:InvOutput.Academy.Rec2100-D65_2000nit_in_Rec2100-D65_ST2084.a2.v1
      ACEStransformID: urn:ampas:aces:transformId:v2.0:Output.Academy.Rec2100-D65_4000nit_in_Rec2100-D65_ST2084.a2.v1
      ACEStransformID: urn:ampas:aces:transformId:v2.0:InvOutput.Academy.Rec2100-D65_4000nit_in_Rec2100-D65_ST2084.a2.v1
      ACEStransformID: urn:ampas:aces:transformId:v2.0:Output.Academy.Rec2100-D60_500nit_in_Rec2100-D65_ST2084.a2.v1
      ACEStransformID: urn:ampas:aces:transformId:v2.0:InvOutput.Academy.Rec2100-D60_500nit_in_Rec2100-D65_ST2084.a2.v1
      ACEStransformID: urn:ampas:aces:transformId:v2.0:Output.Academy.Rec2100-D60_1000nit_in_Rec2100-D65_ST2084.a2.v1
      ACEStransformID: urn:ampas:aces:transformId:v2.0:InvOutput.Academy.Rec2100-D60_1000nit_in_Rec2100-D65_ST2084.a2.v1
      ACEStransformID: urn:ampas:aces:transformId:v2.0:Output.Academy.Rec2100-D60_2000nit_in_Rec2100-D65_ST2084.a2.v1
      ACEStransformID: urn:ampas:aces:transformId:v2.0:InvOutput.Academy.Rec2100-D60_2000nit_in_Rec2100-D65_ST2084.a2.v1
      ACEStransformID: urn:ampas:aces:transformId:v2.0:Output.Academy.Rec2100-D60_4000nit_in_Rec2100-D65_ST2084.a2.v1
      ACEStransformID: urn:ampas:aces:transformId:v2.0:InvOutput.Academy.Rec2100-D60_4000nit_in_Rec2100-D65_ST2084.a2.v1
      ACEStransformID: urn:ampas:aces:transformId:v2.0:Output.Academy.Rec709-D60_100nit_in_Rec2100-D65_ST2084.a2.v1
      ACEStransformID: urn:ampas:aces:transformId:v2.0:InvOutput.Academy.Rec709-D60_100nit_in_Rec2100-D65_ST2084.a2.v1
      ACEStransformID: urn:ampas:aces:transformId:v2.0:Output.Academy.Rec709-D65_100nit_in_Rec2100-D65_ST2084.a2.v1
      ACEStransformID: urn:ampas:aces:transformId:v2.0:InvOutput.Academy.Rec709-D65_100nit_in_Rec2100-D65_ST2084.a2.v1
    isdata: false
    categories: [file-io]
    encoding: hdr-video
    allocation: uniform
    from_display_reference: !<BuiltinTransform> {style: DISPLAY - CIE-XYZ-D65_to_REC.2100-PQ}

  - !<ColorSpace>
    name: ST2084-P3-D65 - Display
    aliases: [st2084_p3d65_display]
    family: Display
    equalitygroup: ""
    bitdepth: 32f
    description: |
      Convert CIE XYZ (D65 white) to ST-2084 (PQ), P3-D65 primaries

      AMF Components
      --------------
      ACEStransformID: urn:ampas:aces:transformId:v2.0:Output.Academy.P3-D65_108nit_in_P3-D65_ST2084.a2.v1
      ACEStransformID: urn:ampas:aces:transformId:v2.0:InvOutput.Academy.P3-D65_108nit_in_P3-D65_ST2084.a2.v1
      ACEStransformID: urn:ampas:aces:transformId:v2.0:Output.Academy.P3-D65_500nit_in_P3-D65_ST2084.a2.v1
      ACEStransformID: urn:ampas:aces:transformId:v2.0:InvOutput.Academy.P3-D65_500nit_in_P3-D65_ST2084.a2.v1
      ACEStransformID: urn:ampas:aces:transformId:v2.0:Output.Academy.P3-D65_1000nit_in_P3-D65_ST2084.a2.v1
      ACEStransformID: urn:ampas:aces:transformId:v2.0:InvOutput.Academy.P3-D65_1000nit_in_P3-D65_ST2084.a2.v1
      ACEStransformID: urn:ampas:aces:transformId:v2.0:Output.Academy.P3-D65_2000nit_in_P3-D65_ST2084.a2.v1
      ACEStransformID: urn:ampas:aces:transformId:v2.0:InvOutput.Academy.P3-D65_2000nit_in_P3-D65_ST2084.a2.v1
      ACEStransformID: urn:ampas:aces:transformId:v2.0:Output.Academy.P3-D65_4000nit_in_P3-D65_ST2084.a2.v1
      ACEStransformID: urn:ampas:aces:transformId:v2.0:InvOutput.Academy.P3-D65_4000nit_in_P3-D65_ST2084.a2.v1
      ACEStransformID: urn:ampas:aces:transformId:v2.0:Output.Academy.P3-D60_108nit_in_P3-D65_ST2084.a2.v1
      ACEStransformID: urn:ampas:aces:transformId:v2.0:InvOutput.Academy.P3-D60_108nit_in_P3-D65_ST2084.a2.v1
      ACEStransformID: urn:ampas:aces:transformId:v2.0:Output.Academy.P3-D60_500nit_in_P3-D65_ST2084.a2.v1
      ACEStransformID: urn:ampas:aces:transformId:v2.0:InvOutput.Academy.P3-D60_500nit_in_P3-D65_ST2084.a2.v1
      ACEStransformID: urn:ampas:aces:transformId:v2.0:Output.Academy.P3-D60_1000nit_in_P3-D65_ST2084.a2.v1
      ACEStransformID: urn:ampas:aces:transformId:v2.0:InvOutput.Academy.P3-D60_1000nit_in_P3-D65_ST2084.a2.v1
      ACEStransformID: urn:ampas:aces:transformId:v2.0:Output.Academy.P3-D60_2000nit_in_P3-D65_ST2084.a2.v1
      ACEStransformID: urn:ampas:aces:transformId:v2.0:InvOutput.Academy.P3-D60_2000nit_in_P3-D65_ST2084.a2.v1
      ACEStransformID: urn:ampas:aces:transformId:v2.0:Output.Academy.P3-D60_4000nit_in_P3-D65_ST2084.a2.v1
      ACEStransformID: urn:ampas:aces:transformId:v2.0:InvOutput.Academy.P3-D60_4000nit_in_P3-D65_ST2084.a2.v1
      ACEStransformID: urn:ampas:aces:transformId:v2.0:Output.Academy.Rec709-D65_100nit_in_P3-D65_ST2084.a2.v1
      ACEStransformID: urn:ampas:aces:transformId:v2.0:InvOutput.Academy.Rec709-D65_100nit_in_P3-D65_ST2084.a2.v1
      ACEStransformID: urn:ampas:aces:transformId:v2.0:Output.Academy.Rec709-D60_100nit_in_P3-D65_ST2084.a2.v1
      ACEStransformID: urn:ampas:aces:transformId:v2.0:InvOutput.Academy.Rec709-D60_100nit_in_P3-D65_ST2084.a2.v1
    isdata: false
    categories: [file-io]
    encoding: hdr-video
    allocation: uniform
    from_display_reference: !<BuiltinTransform> {style: DISPLAY - CIE-XYZ-D65_to_ST2084-P3-D65}

colorspaces:
  - !<ColorSpace>
    name: ACES2065-1
    aliases: [aces2065_1, aces, ACES - ACES2065-1, lin_ap0, lin_ap0_scene]
    family: ACES
    equalitygroup: ""
    bitdepth: 32f
    description: The "Academy Color Encoding System" reference colorspace.
    isdata: false
    categories: [file-io, texture]
    encoding: scene-linear
    allocation: uniform

  - !<ColorSpace>
    name: ACEScc
    aliases: [ACES - ACEScc, acescc_ap1]
    family: ACES
    equalitygroup: ""
    bitdepth: 32f
    description: |
      Convert ACEScc to ACES2065-1

      ACEStransformID: urn:ampas:aces:transformId:v2.0:CSC.Academy.ACEScc_to_ACES.a2.v1

      AMF Components
      --------------
      ACEStransformID: urn:ampas:aces:transformId:v2.0:CSC.Academy.ACES_to_ACEScc.a2.v1
    isdata: false
    categories: [file-io]
    encoding: log
    allocation: uniform
    to_scene_reference: !<BuiltinTransform> {style: ACEScc_to_ACES2065-1}

  - !<ColorSpace>
    name: ACEScct
    aliases: [ACES - ACEScct, acescct_ap1]
    family: ACES
    equalitygroup: ""
    bitdepth: 32f
    description: |
      Convert ACEScct to ACES2065-1

      ACEStransformID: urn:ampas:aces:transformId:v2.0:CSC.Academy.ACEScct_to_ACES.a2.v1

      AMF Components
      --------------
      ACEStransformID: urn:ampas:aces:transformId:v2.0:CSC.Academy.ACES_to_ACEScct.a2.v1
    isdata: false
    categories: [file-io, working-space]
    encoding: log
    allocation: uniform
    to_scene_reference: !<BuiltinTransform> {style: ACEScct_to_ACES2065-1}

  - !<ColorSpace>
    name: ACEScg
    aliases: [ACES - ACEScg, lin_ap1, lin_ap1_scene]
    family: ACES
    equalitygroup: ""
    bitdepth: 32f
    description: |
      Convert ACEScg to ACES2065-1

      ACEStransformID: urn:ampas:aces:transformId:v2.0:CSC.Academy.ACEScg_to_ACES.a2.v1

      AMF Components
      --------------
      ACEStransformID: urn:ampas:aces:transformId:v2.0:CSC.Academy.ACES_to_ACEScg.a2.v1
    isdata: false
    categories: [file-io, working-space, texture]
    encoding: scene-linear
    allocation: uniform
    to_scene_reference: !<BuiltinTransform> {style: ACEScg_to_ACES2065-1}

  - !<ColorSpace>
    name: sRGB Encoded Rec.709 (sRGB)
    aliases: [srgb_encoded_rec709_srgb, srgb_texture, srgb_rec709_scene, Utility - sRGB - Texture, Input - Generic - sRGB - Texture, sRGB - Texture, srgb_tx]
    family: Utility
    equalitygroup: ""
    bitdepth: 32f
    description: |
      Convert ACES2065-1 to sRGB

