ACEScg-personal-v2.0_ocio-v2.4-.ocio
ocio_profile_version: 2.4

environment:
  {}
search_path: ""
strictparsing: true
luma: [0.2126, 0.7152, 0.0722]
name: cg-config-personal_aces-v2.0_ocio-v2.4
description: |
  ACEScg v2.0 Personal — Houdini-tuned OCIO 2.4 config with curated cinematic looks
  --------------------------------------------------------------------------------------

  Base ACES 2.0 output transforms (SDR only) plus 4 curated cinematic looks:
  Film Dense, Chemical Drift, Cold Steel Neutral, Carbon Black.

  All looks are view-only transforms applied in ACEScct log space.
  They do not affect rendered output or texture interpretation.

  SDR displays only: sRGB, Display P3, Rec.1886 Rec.709.

  NOTE: Looks require OCIO 2.4. They will not work in DaVinci Resolve or Fusion,
  which do not have official OCIO 2.4 support.

roles:
  aces_interchange: ACES2065-1
  cie_xyz_d65_interchange: CIE XYZ-D65 - Display-referred
  color_picking: sRGB Encoded Rec.709 (sRGB)
  color_timing: ACEScct
  compositing_log: ACEScct
  data: Raw
  default: ACEScg
  matte_paint: ACEScct
  reference: ACEScg
  scene_linear: ACEScg
  texture_paint: sRGB Encoded Rec.709 (sRGB)

file_rules:
  - !<Rule> {name: srgb_tx, colorspace: sRGB Encoded Rec.709 (sRGB), pattern: "*srgb_tx*", extension: "*"}
  - !<Rule> {name: srgb_texture, colorspace: sRGB Encoded Rec.709 (sRGB), pattern: "*srgb_texture*", extension: "*"}
  - !<Rule> {name: acescg, colorspace: ACEScg, pattern: "*ACEScg*", extension: "*"}
  - !<Rule> {name: lin_rec709, colorspace: Linear Rec.709 (sRGB), pattern: "*lin_rec709*", extension: "*"}
  - !<Rule> {name: lin_srgb, colorspace: Linear Rec.709 (sRGB), pattern: "*lin_srgb*", extension: "*"}
  - !<Rule> {name: __usdz_jpg, colorspace: sRGB Encoded Rec.709 (sRGB), regex: ".[uu][ss][dd][zz]\\[.*[jj][pp][gg]\\]"}
  - !<Rule> {name: __usdz_jpeg, colorspace: sRGB Encoded Rec.709 (sRGB), regex: ".[uu][ss][dd][zz]\\[.*[jj][pp][ee][gg]\\]"}
  - !<Rule> {name: __usdz_png, colorspace: sRGB Encoded Rec.709 (sRGB), regex: ".[uu][ss][dd][zz]\\[.*[pp][nn][gg]\\]"}
  - !<Rule> {name: __usdz_tif, colorspace: sRGB Encoded Rec.709 (sRGB), regex: ".[uu][ss][dd][zz]\\[.*[tt][ii][ff]\\]"}
  - !<Rule> {name: __usdz_tiff, colorspace: sRGB Encoded Rec.709 (sRGB), regex: ".[uu][ss][dd][zz]\\[.*[tt][ii][ff][ff]\\]"}
  - !<Rule> {name: __usdz_exr, colorspace: ACEScg, regex: ".[uu][ss][dd][zz]\\[.*[ee][xx][rr]\\]"}
  - !<Rule> {name: jpg,  colorspace: sRGB Encoded Rec.709 (sRGB), pattern: "*", extension: jpg}
  - !<Rule> {name: jpeg, colorspace: sRGB Encoded Rec.709 (sRGB), pattern: "*", extension: jpeg}
  - !<Rule> {name: png,  colorspace: sRGB Encoded Rec.709 (sRGB), pattern: "*", extension: png}
  - !<Rule> {name: tif,  colorspace: sRGB Encoded Rec.709 (sRGB), pattern: "*", extension: tif}
  - !<Rule> {name: tiff, colorspace: sRGB Encoded Rec.709 (sRGB), pattern: "*", extension: tiff}
  - !<Rule> {name: exr,  colorspace: ACEScg, pattern: "*", extension: exr}
  - !<Rule> {name: Default, colorspace: ACEScg}

shared_views:
  - !<View> {name: ACES 2.0 - SDR 100 nits (Rec.709), view_transform: ACES 2.0 - SDR 100 nits (Rec.709), display_colorspace: <USE_DISPLAY_NAME>}
  - !<View> {name: ACES 2.0 - SDR 100 nits (P3 D65), view_transform: ACES 2.0 - SDR 100 nits (P3 D65), display_colorspace: <USE_DISPLAY_NAME>}
  - !<View> {name: ACES 2.0 - SDR 100 nits (Rec.709) - Film Dense, view_transform: ACES 2.0 - SDR 100 nits (Rec.709), display_colorspace: <USE_DISPLAY_NAME>, looks: "ACES 1.3 Reference Gamut Compression, Film Dense"}
  - !<View> {name: ACES 2.0 - SDR 100 nits (Rec.709) - Chemical Drift, view_transform: ACES 2.0 - SDR 100 nits (Rec.709), display_colorspace: <USE_DISPLAY_NAME>, looks: "ACES 1.3 Reference Gamut Compression, Chemical Drift"}
  - !<View> {name: ACES 2.0 - SDR 100 nits (Rec.709) - Carbon Black, view_transform: ACES 2.0 - SDR 100 nits (Rec.709), display_colorspace: <USE_DISPLAY_NAME>, looks: "ACES 1.3 Reference Gamut Compression, Carbon Black"}
  - !<View> {name: ACES 2.0 - SDR 100 nits (Rec.709) - Cold Steel Neutral, view_transform: ACES 2.0 - SDR 100 nits (Rec.709), display_colorspace: <USE_DISPLAY_NAME>, looks: "ACES 1.3 Reference Gamut Compression, Cold Steel Neutral"}
  - !<View> {name: ACES 2.0 - SDR 100 nits (P3 D65) - Film Dense, view_transform: ACES 2.0 - SDR 100 nits (P3 D65), display_colorspace: <USE_DISPLAY_NAME>, looks: "ACES 1.3 Reference Gamut Compression, Film Dense"}
  - !<View> {name: ACES 2.0 - SDR 100 nits (P3 D65) - Chemical Drift, view_transform: ACES 2.0 - SDR 100 nits (P3 D65), display_colorspace: <USE_DISPLAY_NAME>, looks: "ACES 1.3 Reference Gamut Compression, Chemical Drift"}
  - !<View> {name: ACES 2.0 - SDR 100 nits (P3 D65) - Carbon Black, view_transform: ACES 2.0 - SDR 100 nits (P3 D65), display_colorspace: <USE_DISPLAY_NAME>, looks: "ACES 1.3 Reference Gamut Compression, Carbon Black"}
  - !<View> {name: ACES 2.0 - SDR 100 nits (P3 D65) - Cold Steel Neutral, view_transform: ACES 2.0 - SDR 100 nits (P3 D65), display_colorspace: <USE_DISPLAY_NAME>, looks: "ACES 1.3 Reference Gamut Compression, Cold Steel Neutral"}
  - !<View> {name: Un-tone-mapped, view_transform: Un-tone-mapped, display_colorspace: <USE_DISPLAY_NAME>}

displays:
  sRGB - Display:
    - !<View> {name: Raw, colorspace: Raw}
    - !<Views> [ACES 2.0 - SDR 100 nits (Rec.709), ACES 2.0 - SDR 100 nits (Rec.709) - Film Dense, ACES 2.0 - SDR 100 nits (Rec.709) - Chemical Drift, ACES 2.0 - SDR 100 nits (Rec.709) - Carbon Black, ACES 2.0 - SDR 100 nits (Rec.709) - Cold Steel Neutral, Un-tone-mapped]
  Display P3 - Display:
    - !<View> {name: Raw, colorspace: Raw}
    - !<Views> [ACES 2.0 - SDR 100 nits (P3 D65), ACES 2.0 - SDR 100 nits (P3 D65) - Film Dense, ACES 2.0 - SDR 100 nits (P3 D65) - Chemical Drift, ACES 2.0 - SDR 100 nits (P3 D65) - Carbon Black, ACES 2.0 - SDR 100 nits (P3 D65) - Cold Steel Neutral, Un-tone-mapped]
  Rec.1886 Rec.709 - Display:
    - !<View> {name: Raw, colorspace: Raw}
    - !<Views> [ACES 2.0 - SDR 100 nits (Rec.709), ACES 2.0 - SDR 100 nits (Rec.709) - Film Dense, ACES 2.0 - SDR 100 nits (Rec.709) - Chemical Drift, ACES 2.0 - SDR 100 nits (Rec.709) - Carbon Black, ACES 2.0 - SDR 100 nits (Rec.709) - Cold Steel Neutral, Un-tone-mapped]

active_displays: [sRGB - Display, Display P3 - Display, Rec.1886 Rec.709 - Display]
active_views: [ACES 2.0 - SDR 100 nits (Rec.709), ACES 2.0 - SDR 100 nits (P3 D65), ACES 2.0 - SDR 100 nits (Rec.709) - Film Dense, ACES 2.0 - SDR 100 nits (Rec.709) - Chemical Drift, ACES 2.0 - SDR 100 nits (Rec.709) - Carbon Black, ACES 2.0 - SDR 100 nits (Rec.709) - Cold Steel Neutral, ACES 2.0 - SDR 100 nits (P3 D65) - Film Dense, ACES 2.0 - SDR 100 nits (P3 D65) - Chemical Drift, ACES 2.0 - SDR 100 nits (P3 D65) - Carbon Black, ACES 2.0 - SDR 100 nits (P3 D65) - Cold Steel Neutral, Un-tone-mapped, Raw]
inactive_colorspaces: [CIE XYZ-D65 - Display-referred, CIE XYZ-D65 - Scene-referred]

looks:
  - !<Look>
    name: ACES 1.3 Reference Gamut Compression
    process_space: ACES2065-1
    description: |
      LMT (applied in ACES2065-1) to compress scene-referred values from common cameras into the AP1 gamut

      ACEStransformID: urn:ampas:aces:transformId:v2.0:Look.Academy.ReferenceGamutCompress.a2.v1

      AMF Components
      --------------
      ACEStransformID: urn:ampas:aces:transformId:v2.0:InvLook.Academy.ReferenceGamutCompress.a2.v1
    transform: !<BuiltinTransform> {style: ACES-LMT - ACES 1.3 Reference Gamut Compression}

  # Film Dense — less “contrast crank”, more body via tone + subtle curve.
  - !<Look>
    name: Film Dense
    process_space: ACEScct
    description: |
      Denser film body: thicker low-mids, deep-but-soft blacks, smooth shoulder, lower chroma.
    transform: !<GroupTransform>
      children:
        - !<GradingPrimaryTransform>
          style: log
          contrast: {rgb: [1, 1, 1], master: 1.07}
          saturation: 0.90
        - !<GradingToneTransform>
          style: log
          blacks: {rgb: [1, 1, 1], master: 1.010, start: 0.36, width: 0.48}
          highlights: {rgb: [1, 1, 1], master: 0.972, start: 0.30, pivot: 0.90}
          whites: {rgb: [1, 1, 1], master: 0.988, start: 0.36, width: 0.48}
          s_contrast: 1.02
        - !<GradingRGBCurveTransform>
          style: log
          master: {control_points: [0, 0, 0.40, 0.360, 1, 1]}

  - !<Look>
    name: Carbon Black
    process_space: ACEScct
    description: |
      Near-black object-photo rendering with a preserved low-mid read band and restrained chroma.
    transform: !<GroupTransform>
      children:
        - !<GradingPrimaryTransform>
          style: log
          contrast: {rgb: [1, 1, 1], master: 1.13}
          saturation: 0.58
        - !<GradingToneTransform>
          style: log
          blacks: {rgb: [1, 1, 1], master: 1.030, start: 0.32, width: 0.40}
          highlights: {rgb: [1, 1, 1], master: 0.985, start: 0.27, pivot: 0.90}
          whites: {rgb: [1, 1, 1], master: 0.992, start: 0.32, width: 0.40}
          s_contrast: 1.03
        - !<GradingRGBCurveTransform>
          style: log
          master: {control_points: [0, 0, 0.10, 0.055, 0.22, 0.185, 1, 1]}

  - !<Look>
    name: Cold Steel Neutral
    process_space: ACEScct
    description: |
      Neutral-clean highlights with subtle cool steel bias confined to shadows.
    transform: !<GroupTransform>
      children:
        - !<GradingPrimaryTransform>
          style: log
          contrast: {rgb: [1, 1, 1], master: 1.04}
          saturation: 0.86
        - !<GradingToneTransform>
          style: log
          blacks: {rgb: [1, 1, 1], master: 1.000, start: 0.33, width: 0.44}
          highlights: {rgb: [1, 1, 1], master: 0.992, start: 0.27, pivot: 0.91}
          whites: {rgb: [1, 1, 1], master: 1.000, start: 0.33, width: 0.44}
          s_contrast: 1.00
        - !<GradingRGBCurveTransform>
          style: log
          red: {control_points: [0, 0, 0.28, 0.276, 1, 1]}
          blue: {control_points: [0, 0, 0.28, 0.284, 1, 1]}
          green: {control_points: [0, 0, 0.28, 0.281, 1, 1]}
  - !<Look>
    name: Chemical Drift
    process_space: ACEScct
    description: |
      Broken photochemical drift: dirty yellow-green lows, weak cyan-blue whites,
      compressed shoulder, and visibly unstable dye behavior.
    transform: !<GroupTransform>
      children:
        - !<GradingPrimaryTransform>
          style: log
          contrast: {rgb: [1, 1, 1], master: 1.00}
          saturation: 0.78
        - !<GradingToneTransform>
          style: log
          blacks:     {rgb: [1, 1, 1], master: 0.945, start: 0.33, width: 0.54}
          highlights: {rgb: [1, 1, 1], master: 0.952, start: 0.25, pivot: 0.86}
          whites:     {rgb: [1, 1, 1], master: 0.970, start: 0.33, width: 0.54}
          s_contrast: 0.98
        - !<GradingRGBCurveTransform>
          style: log
          red:   {control_points: [0, 0, 0.16, 0.182, 0.68, 0.690, 1, 0.986]}
          green: {control_points: [0, 0, 0.16, 0.176, 0.68, 0.708, 1, 0.992]}
          blue:  {control_points: [0, 0, 0.16, 0.158, 0.68, 0.732, 1, 1]}
        - !<CDLTransform>
          {slope: [1.014, 1.000, 0.978], offset: [0.0030, 0.0020, 0.0040], power: [1.028, 0.996, 0.970], sat: 0.90}
default_view_transform: Un-tone-mapped

view_transforms:
  - !<ViewTransform>
    name: Un-tone-mapped
    from_scene_reference: !<BuiltinTransform> {style: UTILITY - ACES-AP0_to_CIE-XYZ-D65_BFD}

  - !<ViewTransform>
    name: ACES 2.0 - SDR 100 nits (Rec.709)
    description: |
      Component of ACES 2 Output Transforms for 100 nit SDR Rec709

      ACEStransformID: urn:ampas:aces:transformId:v2.0:Output.Academy.Rec709-D65_100nit_in_Rec709-D65_BT1886.a2.v1

      AMF Components
      --------------
      ACEStransformID: urn:ampas:aces:transformId:v2.0:InvOutput.Academy.Rec709-D65_100nit_in_Rec709-D65_BT1886.a2.v1
    from_scene_reference: !<BuiltinTransform> {style: ACES-OUTPUT - ACES2065-1_to_CIE-XYZ-D65 - SDR-100nit-REC709_2.0}

  - !<ViewTransform>
    name: ACES 2.0 - SDR 100 nits (P3 D65)
    description: |
      Component of ACES 2 Output Transforms for 100 nit SDR P3-D65

      ACEStransformID: urn:ampas:aces:transformId:v2.0:Output.Academy.P3-D65_48nit_in_P3-D65_Gamma2pt6.a2.v1

      AMF Components
      --------------
      ACEStransformID: urn:ampas:aces:transformId:v2.0:InvOutput.Academy.P3-D65_48nit_in_P3-D65_Gamma2pt6.a2.v1
    from_scene_reference: !<BuiltinTransform> {style: ACES-OUTPUT - ACES2065-1_to_CIE-XYZ-D65 - SDR-100nit-P3-D65_2.0}


display_colorspaces:
  - !<ColorSpace>
    name: CIE XYZ-D65 - Display-referred
    aliases: [cie_xyz_d65_display, lin_ciexyzd65_display]
    family: ""
    equalitygroup: ""
    bitdepth: 32f
    description: The "CIE XYZ (D65)" display connection colorspace.
    isdata: false
    encoding: display-linear
    allocation: uniform

  - !<ColorSpace>
    name: sRGB - Display
    aliases: [srgb_display]
    family: Display
    equalitygroup: ""
    bitdepth: 32f
    description: |
      Convert CIE XYZ (D65 white) to sRGB (piecewise EOTF)

      AMF Components
      --------------
      ACEStransformID: urn:ampas:aces:transformId:v2.0:Output.Academy.Rec709-D65_100nit_in_Rec709-D65_sRGB-Piecewise.a2.v1
      ACEStransformID: urn:ampas:aces:transformId:v2.0:InvOutput.Academy.Rec709-D65_100nit_in_Rec709-D65_sRGB-Piecewise.a2.v1
      ACEStransformID: urn:ampas:aces:transformId:v2.0:Output.Academy.Rec709-D60_100nit_in_Rec709-D65_sRGB-Piecewise.a2.v1
      ACEStransformID: urn:ampas:aces:transformId:v2.0:InvOutput.Academy.Rec709-D60_100nit_in_Rec709-D65_sRGB-Piecewise.a2.v1
    isdata: false
    categories: [file-io]
    encoding: sdr-video
    allocation: uniform
    from_display_reference: !<BuiltinTransform> {style: DISPLAY - CIE-XYZ-D65_to_sRGB}

  - !<ColorSpace>
    name: Display P3 - Display
    aliases: [displayp3_display]
    family: Display
    equalitygroup: ""
    bitdepth: 32f
    description: |
      Convert CIE XYZ (D65 white) to Apple Display P3

      AMF Components
      --------------
      ACEStransformID: urn:ampas:aces:transformId:v2.0:Output.Academy.P3-D65_100nit_in_P3-D65_sRGB-Piecewise.a2.v1
      ACEStransformID: urn:ampas:aces:transformId:v2.0:InvOutput.Academy.P3-D65_100nit_in_P3-D65_sRGB-Piecewise.a2.v1
      ACEStransformID: urn:ampas:aces:transformId:v2.0:Output.Academy.P3-D60_100nit_in_P3-D65_sRGB-Piecewise.a2.v1
      ACEStransformID: urn:ampas:aces:transformId:v2.0:InvOutput.Academy.P3-D60_100nit_in_P3-D65_sRGB-Piecewise.a2.v1
    isdata: false
    categories: [file-io]
    encoding: sdr-video
    allocation: uniform
    from_display_reference: !<BuiltinTransform> {style: DISPLAY - CIE-XYZ-D65_to_DisplayP3}

  - !<ColorSpace>
    name: Rec.1886 Rec.709 - Display
    aliases: [rec1886_rec709_display]
    family: Display
    equalitygroup: ""
    bitdepth: 32f
    description: |
      Convert CIE XYZ (D65 white) to Rec.1886/Rec.709 (HD video)

      AMF Components
      --------------
      ACEStransformID: urn:ampas:aces:transformId:v2.0:Output.Academy.Rec709-D65_100nit_in_Rec709-D65_BT1886.a2.v1
      ACEStransformID: urn:ampas:aces:transformId:v2.0:InvOutput.Academy.Rec709-D65_100nit_in_Rec709-D65_BT1886.a2.v1
      ACEStransformID: urn:ampas:aces:transformId:v2.0:Output.Academy.Rec709-D60_100nit_in_Rec709-D65_BT1886.a2.v1
      ACEStransformID: urn:ampas:aces:transformId:v2.0:InvOutput.Academy.Rec709-D60_100nit_in_Rec709-D65_BT1886.a2.v1
    isdata: false
    categories: [file-io]
    encoding: sdr-video
    allocation: uniform
    from_display_reference: !<BuiltinTransform> {style: DISPLAY - CIE-XYZ-D65_to_REC.1886-REC.709}


colorspaces:
  - !<ColorSpace>
    name: ACES2065-1
    aliases: [aces2065_1, aces, ACES - ACES2065-1, lin_ap0, lin_ap0_scene]
    family: ACES
    equalitygroup: ""
    bitdepth: 32f
    description: The "Academy Color Encoding System" reference colorspace.
    isdata: false
    categories: [file-io, texture]
    encoding: scene-linear
    allocation: uniform

  - !<ColorSpace>
    name: ACEScc
    aliases: [ACES - ACEScc, acescc_ap1]
    family: ACES
    equalitygroup: ""
    bitdepth: 32f
    description: |
      Convert ACEScc to ACES2065-1

      ACEStransformID: urn:ampas:aces:transformId:v2.0:CSC.Academy.ACEScc_to_ACES.a2.v1

      AMF Components
      --------------
      ACEStransformID: urn:ampas:aces:transformId:v2.0:CSC.Academy.ACES_to_ACEScc.a2.v1
    isdata: false
    categories: [file-io]
    encoding: log
    allocation: uniform
    to_scene_reference: !<BuiltinTransform> {style: ACEScc_to_ACES2065-1}

  - !<ColorSpace>
    name: ACEScct
    aliases: [ACES - ACEScct, acescct_ap1]
    family: ACES
    equalitygroup: ""
    bitdepth: 32f
    description: |
      Convert ACEScct to ACES2065-1

      ACEStransformID: urn:ampas:aces:transformId:v2.0:CSC.Academy.ACEScct_to_ACES.a2.v1

      AMF Components
      --------------
      ACEStransformID: urn:ampas:aces:transformId:v2.0:CSC.Academy.ACES_to_ACEScct.a2.v1
    isdata: false
    categories: [file-io, working-space]
    encoding: log
    allocation: uniform
    to_scene_reference: !<BuiltinTransform> {style: ACEScct_to_ACES2065-1}

  - !<ColorSpace>
    name: ACEScg
    aliases: [ACES - ACEScg, lin_ap1, lin_ap1_scene]
    family: ACES
    equalitygroup: ""
    bitdepth: 32f
    description: |
      Convert ACEScg to ACES2065-1

      ACEStransformID: urn:ampas:aces:transformId:v2.0:CSC.Academy.ACEScg_to_ACES.a2.v1

      AMF Components
      --------------
      ACEStransformID: urn:ampas:aces:transformId:v2.0:CSC.Academy.ACES_to_ACEScg.a2.v1
    isdata: false
    categories: [file-io, working-space, texture]
    encoding: scene-linear
    allocation: uniform
    to_scene_reference: !<BuiltinTransform> {style: ACEScg_to_ACES2065-1}

  - !<ColorSpace>
    name: sRGB Encoded Rec.709 (sRGB)
    aliases: [srgb_encoded_rec709_srgb, srgb_texture, srgb_rec709_scene, Utility - sRGB - Texture, Input - Generic - sRGB - Texture, sRGB - Texture, srgb_tx]
    family: Utility
    equalitygroup: ""
    bitdepth: 32f
    description: |
      Convert ACES2065-1 to sRGB

      CLFtransformID: urn:aswf:ocio:transformId:1.0:OCIO:Utility:AP0_to_sRGB-Encoded-Rec709:1.0
    isdata: false
    categories: [file-io, texture]
    encoding: sdr-video
    allocation: uniform
    from_scene_reference: !<GroupTransform>
      name: AP0 to sRGB Encoded Rec.709 (sRGB)
      children:
        - !<MatrixTransform> {matrix: [2.52168618674388, -1.13413098823972, -0.387555198504164, 0, -0.276479914229922, 1.37271908766826, -0.096239173438334, 0, -0.0153780649660342, -0.152975335867399, 1.16835340083343, 0, 0, 0, 0, 1]}
        - !<ExponentWithLinearTransform> {gamma: 2.4, offset: 0.055, direction: inverse}

  - !<ColorSpace>
    name: Gamma 1.8 Encoded Rec.709
    aliases: [g18_encoded_rec709, g18_rec709, Utility - Gamma 1.8 - Rec.709 - Texture, Gamma 1.8 Rec.709 - Texture, g18_rec709_tx, g18_rec709_scene]
    family: Utility
    equalitygroup: ""
    bitdepth: 32f
    description: |
      Convert ACES2065-1 to 1.8 gamma-corrected Rec.709 primaries, D65 white point

      CLFtransformID: urn:aswf:ocio:transformId:1.0:OCIO:Utility:AP0_to_Gamma1.8_Encoded_Rec709:1.0
    isdata: false
    categories: [file-io, texture]
    encoding: sdr-video
    allocation: uniform
    from_scene_reference: !<GroupTransform>
      name: AP0 to Gamma 1.8 Encoded Rec.709
      children:
        - !<MatrixTransform> {matrix: [2.52168618674388, -1.13413098823972, -0.387555198504164, 0, -0.276479914229922, 1.37271908766826, -0.096239173438334, 0, -0.0153780649660342, -0.152975335867399, 1.16835340083343, 0, 0, 0, 0, 1]}
        - !<ExponentTransform> {value: 1.8, style: pass_thru, direction: inverse}

  - !<ColorSpace>
    name: Gamma 2.2 Encoded Rec.709
    aliases: [g22_encoded_rec709, g22_rec709, Utility - Gamma 2.2 - Rec.709 - Texture, Gamma 2.2 Rec.709 - Texture, g22_rec709_tx, g22_rec709_scene]
    family: Utility
    equalitygroup: ""
    bitdepth: 32f
    description: |
      Convert ACES2065-1 to 2.2 gamma-corrected Rec.709 primaries, D65 white point

      CLFtransformID: urn:aswf:ocio:transformId:1.0:OCIO:Utility:AP0_to_Gamma2.2_Encoded_Rec709:1.0
    isdata: false
    categories: [file-io, texture]
    encoding: sdr-video
    allocation: uniform
    from_scene_reference: !<GroupTransform>
      name: AP0 to Gamma 2.2 Encoded Rec.709
      children:
        - !<MatrixTransform> {matrix: [2.52168618674388, -1.13413098823972, -0.387555198504164, 0, -0.276479914229922, 1.37271908766826, -0.096239173438334, 0, -0.0153780649660342, -0.152975335867399, 1.16835340083343, 0, 0, 0, 0, 1]}
        - !<ExponentTransform> {value: 2.2, style: pass_thru, direction: inverse}

  - !<ColorSpace>
    name: Gamma 2.4 Encoded Rec.709
    aliases: [g24_encoded_rec709, g24_rec709, rec709_display, Utility - Rec.709 - Display, Gamma 2.4 Rec.709 - Texture, g24_rec709_tx]
    family: Utility
    equalitygroup: ""
    bitdepth: 32f
    description: |
      Convert ACES2065-1 to 2.4 gamma-corrected Rec.709 primaries, D65 white point

      CLFtransformID: urn:aswf:ocio:transformId:1.0:OCIO:Utility:AP0_to_Gamma2.4_Encoded_Rec709:1.0
    isdata: false
    categories: [file-io, texture]
    encoding: sdr-video
    allocation: uniform
    from_scene_reference: !<GroupTransform>
      name: AP0 to Gamma 2.4 Encoded Rec.709
      children:
        - !<MatrixTransform> {matrix: [2.52168618674388, -1.13413098823972, -0.387555198504164, 0, -0.276479914229922, 1.37271908766826, -0.096239173438334, 0, -0.0153780649660342, -0.152975335867399, 1.16835340083343, 0, 0, 0, 0, 1]}
        - !<ExponentTransform> {value: 2.4, style: pass_thru, direction: inverse}

  - !<ColorSpace>
    name: sRGB Encoded P3-D65
    aliases: [srgb_encoded_p3d65, srgb_p3d65, srgb_displayp3, srgb_p3d65_scene, sRGB Encoded P3-D65 - Texture, srgb_encoded_p3d65_tx]
    family: Utility
    equalitygroup: ""
    bitdepth: 32f
    description: |
      Convert ACES2065-1 to sRGB Encoded P3-D65 primaries, D65 white point

      CLFtransformID: urn:aswf:ocio:transformId:1.0:OCIO:Utility:AP0_to_sRGB_Encoded_P3-D65:1.0
    isdata: false
    categories: [file-io, texture]
    encoding: sdr-video
    allocation: uniform
    from_scene_reference: !<GroupTransform>
      name: AP0 to sRGB Encoded P3-D65
      children:
        - !<MatrixTransform> {matrix: [2.02490528596679, -0.689069761034766, -0.335835524932019, 0, -0.183597032256178, 1.28950620775902, -0.105909175502841, 0, 0.00905856112234766, -0.0592796840575522, 1.0502211229352, 0, 0, 0, 0, 1]}
        - !<ExponentWithLinearTransform> {gamma: 2.4, offset: 0.055, direction: inverse}


  - !<ColorSpace>
    name: sRGB Encoded AP1
    aliases: [srgb_encoded_ap1, srgb_ap1, srgb_ap1_scene, sRGB Encoded AP1 - Texture, srgb_encoded_ap1_tx]
    family: Utility
    equalitygroup: ""
    bitdepth: 32f
    description: |
      Convert ACES2065-1 to sRGB Encoded AP1 primaries, ACES ~=D60 white point

      CLFtransformID: urn:aswf:ocio:transformId:1.0:OCIO:Utility:AP0_to_sRGB_Encoded_AP1:1.0
    isdata: false
    categories: [file-io, texture]
    encoding: sdr-video
    allocation: uniform
    from_scene_reference: !<GroupTransform>
      name: AP0 to sRGB Encoded AP1
      children:
        - !<MatrixTransform> {matrix: [1.45143931614567, -0.23651074689374, -0.214928569251925, 0, -0.0765537733960206, 1.17622969983357, -0.0996759264375522, 0, 0.00831614842569772, -0.00603244979102102, 0.997716301365323, 0, 0, 0, 0, 1]}
        - !<ExponentWithLinearTransform> {gamma: 2.4, offset: 0.055, direction: inverse}

  - !<ColorSpace>
    name: Gamma 2.2 Encoded AP1
    aliases: [g22_encoded_ap1, g22_ap1, Gamma 2.2 AP1 - Texture, g22_ap1_tx, g22_ap1_scene]
    family: Utility
    equalitygroup: ""
    bitdepth: 32f
    description: |
      Convert ACES2065-1 to 2.2 gamma-corrected AP1 primaries, ACES ~=D60 white point

      CLFtransformID: urn:aswf:ocio:transformId:1.0:OCIO:Utility:AP0_to_Gamma2.2_Encoded_AP1:1.0
    isdata: false
    categories: [file-io, texture]
